Sources/FrostedUI/Resources/Icons.xcassets/youTube16.imageset/youtube-16.svg

<svg width="16" height="16" viewBox="0 0 16 16" fill="none" xmlns="http://www.w3.org/2000/svg" data-fui-icon="true">
  <path
    d="M8.19434 1.58398C8.31759 1.58465 8.49447 1.58523 8.70996 1.58789C9.14103 1.59322 9.72895 1.60457 10.3516 1.62598C10.9727 1.64733 11.6363 1.67943 12.2178 1.72852C12.7753 1.77558 13.3304 1.84319 13.6914 1.95508L13.8564 2.0127C14.6656 2.33092 15.2388 3.0758 15.4375 3.93359H15.4385C15.6015 4.63915 15.6753 5.67743 15.7119 6.49121C15.7306 6.90744 15.7404 7.28318 15.7451 7.55469C15.7475 7.69046 15.7484 7.80135 15.749 7.87793C15.7493 7.91603 15.7499 7.94625 15.75 7.9668V8.03223C15.7499 8.05273 15.7493 8.08295 15.749 8.12109C15.7484 8.19764 15.7474 8.3085 15.7451 8.44434C15.7405 8.71592 15.7316 9.09228 15.7129 9.50879C15.6764 10.3224 15.6012 11.3604 15.4375 12.0664C15.2387 12.924 14.6654 13.6681 13.8564 13.9863L13.6914 14.0439C13.3304 14.1559 12.7754 14.2234 12.2178 14.2705C11.6363 14.3196 10.9727 14.3527 10.3516 14.374C9.72894 14.3954 9.14103 14.4058 8.70996 14.4111C8.49447 14.4138 8.3176 14.4153 8.19434 14.416H7.80566C7.6824 14.4153 7.50553 14.4138 7.29004 14.4111C6.85897 14.4058 6.27105 14.3954 5.64844 14.374C5.02729 14.3527 4.36374 14.3196 3.78223 14.2705C3.2941 14.2293 2.80789 14.1726 2.45215 14.084L2.30859 14.0439C1.41286 13.7666 0.77452 12.9812 0.5625 12.0664L0.504883 11.7871C0.380425 11.1045 0.319028 10.2208 0.287109 9.50879C0.268448 9.09228 0.259543 8.71592 0.254883 8.44434C0.252555 8.3085 0.251564 8.19764 0.250977 8.12109C0.250682 8.08295 0.250075 8.05273 0.25 8.03223V7.9668C0.250081 7.94625 0.250685 7.91588 0.250977 7.87793C0.251565 7.8014 0.25256 7.69115 0.254883 7.55566C0.259542 7.28406 0.268444 6.90777 0.287109 6.49121C0.323585 5.67748 0.398775 4.63958 0.5625 3.93359L0.606445 3.76367C0.854503 2.92232 1.46862 2.21513 2.30859 1.95508L2.45215 1.91504C2.80788 1.82643 3.29415 1.76972 3.78223 1.72852C4.36373 1.67943 5.0273 1.64733 5.64844 1.62598C6.27105 1.60457 6.85897 1.59322 7.29004 1.58789C7.50553 1.58523 7.6824 1.58465 7.80566 1.58398C7.86709 1.58365 7.91525 1.58309 7.94824 1.58301H8.05176C8.08475 1.58309 8.13291 1.58365 8.19434 1.58398ZM7.81348 3.08398C7.69323 3.08464 7.51998 3.08528 7.30859 3.08789C6.88465 3.09314 6.30854 3.10409 5.7002 3.125C5.09049 3.14596 4.45443 3.17752 3.9082 3.22363C3.33881 3.27171 2.93773 3.33047 2.75293 3.3877H2.75195C2.44273 3.4835 2.13431 3.79395 2.02344 4.27246C1.89452 4.82839 1.82284 5.73967 1.78613 6.55859C1.76825 6.95781 1.75937 7.31942 1.75488 7.58105C1.75265 7.71153 1.75153 7.81725 1.75098 7.88965C1.7507 7.92563 1.75007 7.954 1.75 7.97266V8.02637C1.75007 8.04492 1.7507 8.07344 1.75098 8.10938C1.75153 8.18168 1.75265 8.28749 1.75488 8.41797C1.75937 8.67967 1.76823 9.04192 1.78613 9.44141C1.81825 10.158 1.87693 10.945 1.97754 11.5029L2.02344 11.7275L2.07422 11.8984C2.21169 12.2797 2.48134 12.5275 2.75195 12.6113H2.75293C2.93764 12.6686 3.33859 12.7283 3.9082 12.7764C4.45443 12.8225 5.09049 12.8531 5.7002 12.874C6.30854 12.8949 6.88465 12.9059 7.30859 12.9111C7.51999 12.9137 7.69323 12.9154 7.81348 12.916H8.18652C8.30677 12.9154 8.48001 12.9137 8.69141 12.9111C9.11535 12.9059 9.69146 12.8949 10.2998 12.874C10.9095 12.8531 11.5456 12.8225 12.0918 12.7764C12.6614 12.7283 13.0624 12.6686 13.2471 12.6113H13.248C13.5572 12.5155 13.8658 12.2061 13.9766 11.7275L14.0225 11.5029C14.1231 10.945 14.1817 10.158 14.2139 9.44141C14.2318 9.04192 14.2406 8.67967 14.2451 8.41797C14.2474 8.28749 14.2485 8.18168 14.249 8.10938C14.2493 8.07344 14.2499 8.04492 14.25 8.02637V7.97266C14.2499 7.954 14.2493 7.92552 14.249 7.88965C14.2484 7.81725 14.2474 7.71136 14.2451 7.58105C14.2405 7.31938 14.2318 6.95777 14.2139 6.55859C14.1816 5.84204 14.1228 5.05435 14.0225 4.49609L13.9766 4.27148C13.8656 3.79327 13.5572 3.48348 13.248 3.3877H13.2471C13.0623 3.33047 12.6612 3.27171 12.0918 3.22363C11.5456 3.17752 10.9095 3.14596 10.2998 3.125C9.69146 3.10409 9.11535 3.09314 8.69141 3.08789C8.48002 3.08528 8.30677 3.08464 8.18652 3.08398C8.12657 3.08366 8.07951 3.08309 8.04785 3.08301H7.95215C7.92049 3.08309 7.87343 3.08366 7.81348 3.08398ZM5.78223 6.08887C5.78245 5.42742 6.4536 4.99843 7.04102 5.23828L7.15723 5.29492L10.4668 7.20605C11.0779 7.55885 11.0778 8.44107 10.4668 8.79395L7.15723 10.7051C6.54617 11.0578 5.78236 10.6167 5.78223 9.91113V6.08887ZM7.28223 8.89941L8.8418 7.99902L7.28223 7.09863V8.89941Z"
    fill="currentColor"
  />
</svg>

<svg xmlns="http://www.w3.org/2000/svg" width="16" height="16" fill="none" data-fui-icon="true" viewBox="0 0 16 16"><path fill="currentColor" d="M8.194 1.584a76.68 76.68 0 0 1 2.157.042c.622.021 1.285.053 1.867.103.557.047 1.112.114 1.473.226l.165.058c.81.318 1.383 1.063 1.582 1.92.163.706.237 1.744.274 2.558a39 39 0 0 1 .037 1.387l.001.089v.065l-.001.09a35 35 0 0 1-.036 1.387c-.037.813-.112 1.851-.275 2.557-.2.858-.773 1.602-1.582 1.92l-.165.058c-.36.112-.916.18-1.473.226-.582.05-1.245.083-1.866.104a76 76 0 0 1-2.158.042h-.388a78 78 0 0 1-2.158-.042 39 39 0 0 1-1.866-.104c-.488-.04-.974-.097-1.33-.186l-.143-.04C1.413 13.767.775 12.98.562 12.066l-.057-.279C.38 11.104.319 10.221.287 9.51A39 39 0 0 1 .251 8.12L.25 8.032v-.065l.001-.09.004-.321c.005-.272.013-.648.032-1.065C.324 5.677.4 4.64.563 3.934l.043-.17c.249-.842.863-1.549 1.703-1.809l.143-.04c.356-.089.842-.145 1.33-.186.582-.05 1.245-.082 1.866-.103.623-.021 1.211-.033 1.642-.038.216-.003.392-.003.516-.004l.142-.001h.104zm-.38 1.5a75.107 75.107 0 0 0-2.113.041 38 38 0 0 0-1.793.099c-.57.048-.97.106-1.155.164h-.001c-.31.095-.618.406-.729.884-.128.556-.2 1.468-.237 2.287a38 38 0 0 0-.035 1.33l-.001.084v.053l.001.083a33 33 0 0 0 .035 1.332c.032.717.09 1.504.192 2.062l.045.224.051.171c.138.382.407.63.678.713.186.058.587.117 1.156.165.546.046 1.182.077 1.792.098a75 75 0 0 0 2.113.042h.374a75 75 0 0 0 2.113-.042c.61-.02 1.246-.052 1.792-.098.57-.048.97-.107 1.155-.165h.001c.31-.096.618-.405.729-.884l.046-.224c.1-.558.159-1.345.19-2.062a38 38 0 0 0 .036-1.332l.001-.083v-.053l-.001-.083-.004-.309a38 38 0 0 0-.031-1.022c-.032-.717-.091-1.505-.191-2.063l-.046-.225c-.111-.478-.42-.788-.729-.883-.186-.058-.587-.116-1.156-.164a38 38 0 0 0-1.792-.099 75 75 0 0 0-1.609-.037c-.211-.003-.384-.003-.504-.004l-.14-.001h-.095zM5.781 6.089a.917.917 0 0 1 1.259-.85l.116.056 3.31 1.911a.917.917 0 0 1 0 1.588l-3.31 1.911a.917.917 0 0 1-1.375-.794zm1.5 2.81 1.56-.9-1.56-.9z"/></svg>
